/* XPM */
static char *south[] = {
"128 128 16 1",
". c #0A0D10",
"# c #10141A",
"o c #161B24",
"[ c #1C232E",
"] c #232B39",
"{ c #2A3445",
"} c #323E51",
"| c #3A485E",
": c #43536B",
"; c #4C5F7A",
"+ c #566C89",
"- c #607999",
"a c #6B87A9",
"b c #7696BA",
"c c #82A6CB",
"d c #8EB7DC",
"................................................................................................................................",
".:-+:a+;a-;:-+:a+;a-;:-+:a+;a-;:-+:a+;a-;:-+:a+;a-;:-+:a+;a-;:-+.a+;a-;:-+:a+;a-;:-+:a+;a-;:-+:a+;a-;:-+:a+;a-;:-+:a+;a-;:-+:a+;",
".-:;;+a::;-aa:+--a;++-:;;+a::;-aa:+--a;++-:;;+a::;-aa:+--a;++-:;.+a::;-aa:+--a;++-:;;+a::;-aa:+--a;++-:;;+a::;-aa:+--a;++-:;;+a:",
".+;:+;:a;:a-:a-+a-+;-+;:+;:a;:a-:a-+a-+;-+;:+;:a;:a-:a-+a-+;-+;:.;:a;:a-:a-+a-+;-+;:+;:a;:a-:a-+a-+;-+;:+;:a;:a-:a-+a-+;-+;:+;:a",
".:;+:;+-+-a:-a:;:;+-;+-a-a:;a:;+;+-a+-a:a:;+:;+-+-a:-a:;:;+-;+-a.a:;a:;+;+-a+-a:a:;+:;+-+-a:-a:;:;+-;+-a-a:;a:;+;+-a+-a:a:;+:;+-",
".a+;;:-+-+:aa-;:;:-++;a-a-;::a+;+;a--+:a:a+;;:-+-+:aa-;:;:-++;a-.-;::a+;+;a--+:a:a+;;:-+-+:aa-;:;:-++;a-a-;::a+;+;a--+:a:a+;;:-+",
".+a:+-:;a:+-:;-a+-:;-a;+:;-a;+a:-a;+a:+-;+a:+-:;a:+-:;-a+-:;-a;+.;-a;+a:-a;+a:+-;+a:+-:;a:+-:;-a+-:;-a;+:;-a;+a:-a;+a:+-;+a:+-:;",
".;:a-+;::a-+;:a--+;:a-+;;:a-+;:aa-+;:a-++;:a-+;::a-+;:a--+;:a-+;.:a-+;:aa-+;:a-++;:a-+;::a-+;:a--+;:a-+;;:a-+;:aa-+;:a-++;:a-+;:",
".a:;+-a::;+-a:;+a:;+-a:;;+-a:;+-:;+-a:;++-a:;+-a;+-a:;+--a:;+-a:.-a:;+-aa:;+-a:;-a:;+-a::;+-a:;+a:;+-a:;;+-a:;+-:;+-a:;++-a:;+-a",
".-;:-+:a;:-+:a+;:a+;a-;:+;a-;:-+;:-+:a+;-+:a+;a-+;a-;:-+a-;:-+:a.+:a+;a-:a+;a-;:a-;:-+:a;:-+:a+;:a+;a-;:+;a-;:-+;:-+:a+;-+:a+;a-",
".;-aa:+-+-:;;+a:;+a::;-a-a;++-:;+-:;;+a:a:+--a;+-a;++-:;:;-aa:+-.:+--a;+;+a::;-a:;-aa:+-+-:;;+a:;+a::;-a-a;++-:;+-:;;+a:a:+--a;+",
".:a-:a-+-+;:+;:a+;:a;:a-a-+;-+;:-+;:+;:a:a-+a-+;a-+;-+;:;:a-:a-+.a-+a-+;+;:a;:a-;:a-:a-+-+;:+;:a+;:a;:a-a-+;-+;:-+;:+;:a:a-+a-+;",
".-a:-a:;a:;+:;+--a:;a:;+:;+-;+-aa:;+:;+-;+-a+-a::;+-;+-a+-a:-a:;.+-a+-a:-a:;a:;++-a:-a:;a:;+:;+--a:;a:;+:;+-;+-aa:;+:;+-;+-a+-a:",
".+:aa-;::a+;;:-+a-;::a+;;:-++;a-:a+;;:-++;a--+:a;:-++;a--+:aa-;:.;a--+:aa-;::a+;-+:aa-;::a+;;:-+a-;::a+;;:-++;a-:a+;;:-++;a--+:a",
".:+-:;-a;+a:+-:;:;-a;+a:+-:;-a;+;+a:+-:;-a;+a:+-+-:;-a;+a:+-:;-a.a;+a:+-:;-a;+a:a:+-:;-a;+a:+-:;:;-a;+a:+-:;-a;+;+a:+-:;-a;+a:+-",
".a-+;:a-+;:a-+;:;:a-+;:a-+;:a-+;+;:a-+;:a-+;:a-+-+;:a-+;:a-+;:a-.-+;:a-+;:a-+;:a:a-+;:a-+;:a-+;:;:a-+;:a-+;:a-+;+;:a-+;:a-+;:a-+",
".+-a:;+-a:;+-a:;:;+-a:;+-a:;+-a:-a:;+-a:;+-a:;+-+-a:;+-a:;+-a:;+.;+-a:;+-a:;+-a:a:;+-a:;+-a:;+-a+-a:;+-a:;+-a:;+;+-a:;+-a:;+-a:;",
".;a-;:-+:a+;a-;:;:-+:a+;a-;:-+:aa-;:-+:a+;a-;:-+-+:a+;a-;:-+:a+;.:-+:a+;a-;:-+:a:a+;a-;:-+:a+;a--+:a+;a-;:-+:a+;+;a-;:-+:a+;a-;:",
".a;++-:;;+a::;-a+-:;;+a::;-aa:+-:;-aa:+--a;++-:;a:+--a;++-:;;+a:.-:;;+a::;-aa:+-;+a::;-aa:+--a;+a:+--a;++-:;;+a:-a;++-:;;+a::;-a",
".-+;-+;:+;:a;:a--+;:+;:a;:a-:a-+;:a-:a-+a-+;-+;::a-+a-+;-+;:+;:a.+;:+;:a;:a-:a-++;:a;:a-:a-+a-+;:a-+a-+;-+;:+;:aa-+;-+;:+;:a;:a-",
".;+-;+-a-a:;a:;+a:;+:;+-+-a:-a:;+-a:-a:;:;+-;+-a;+-a+-a:a:;+:;+-.:;+:;+-+-a:-a:;-a:;a:;+;+-a+-a:;+-a+-a:a:;+:;+-:;+-;+-a-a:;a:;+",
".:-++;a-a-;::a+;:a+;;:-+-+:aa-;:-+:aa-;:;:-++;a-+;a--+:a:a+;;:-+.a+;;:-+-+:aa-;:a-;::a+;+;a--+:a+;a--+:a:a+;;:-+;:-++;a-a-;::a+;",
".-:;-a;+:;-a;+a:;+a:+-:;a:+-:;-aa:+-:;-a+-:;-a;+-a;+a:+-;+a:+-:;.+a:+-:;a:+-:;-a:;-a;+a:-a;+a:+--a;+a:+-;+a:+-:;+-:;-a;+:;-a;+a:",
".+;:a-+;;:a-+;:a+;:a-+;::a-+;:a-:a-+;:a--+;:a-+;a-+;:a-++;:a-+;:.;:a-+;::a-+;:a-;:a-+;:aa-+;:a-+a-+;:a-++;:a-+;:-+;:a-+;;:a-+;:a",
".:;+-a:;;+-a:;+--a:;+-a::;+-a:;+;+-a:;+--a:;+-a::;+-a:;++-a:;+-a.a:;+-a::;+-a:;++-a:;+-aa:;+-a:;:;+-a:;++-a:;+-aa:;+-a:;;+-a:;+-",
".a+;a-;:+;a-;:-+a-;:-+:a;:-+:a+;+;a-;:-+a-;:-+:a;:-+:a+;-+:a+;a-.-;:-+:a;:-+:a+;-+:a+;a-:a+;a-;:;:-+:a+;-+:a+;a-:a+;a-;:+;a-;:-+",
".+a::;-a-a;++-:;:;-aa:+-+-:;;+a:-a;++-:;:;-aa:+-+-:;;+a:a:+--a;+.;-aa:+-+-:;;+a:a:+--a;+;+a::;-a+-:;;+a:a:+--a;+;+a::;-a-a;++-:;",
".;:a;:a-a-+;-+;:;:a-:a-+-+;:+;:aa-+;-+;:;:a-:a-+-+;:+;:a:a-+a-+;.:a-:a-+-+;:+;:a:a-+a-+;+;:a;:a--+;:+;:a:a-+a-+;+;:a;:a-a-+;-+;:",
".a:;a:;+:;+-;+-a+-a:-a:;a:;+:;+-:;+-;+-a+-a:-a:;a:;+:;+-;+-a+-a:.-a:-a:;a:;+:;+-;+-a+-a:-a:;a:;+a:;+:;+-;+-a+-a:-a:;a:;+:;+-;+-a",
".-;::a+;;:-++;a--+:aa-;::a+;;:-+;:-++;a--+:aa-;::a+;;:-++;a--+:a.+:aa-;::a+;;:-++;a--+:aa-;::a+;:a+;;:-++;a--+:aa-;::a+;;:-++;a-",
".;-a;+a:+-:;-a;+a:+-:;-a;+a:+-:;+-:;-a;+a:+-:;-a;+a:+-:;-a;+a:+-.:+-:;-a;+a:+-:;-a;+a:+-:;-a;+a:;+a:+-:;-a;+a:+-:;-a;+a:+-:;-a;+",
".:a-+;:a-+;:a-+;:a-+;:a-+;:a-+;:-+;:a-+;:a-+;:a-+;:a-+;:a-+;:a-+.a-+;:a-+;:a-+;:a-+;:a-+;:a-+;:a+;:a-+;:a-+;:a-+;:a-+;:a-+;:a-+;",
".-a:;+-a:;+-a:;+-a:;+-a:;+-a:;+-:;+-a:;+-a:;+-a:;+-a:;+-a:;+-a:;.+-a:;+-a:;+-a:;+-a:;+-a:;+-a:;+a:;+-a:;+-a:;+-a:;+-a:;+-a:;+-a:",
".+:a+;a-;:-+:a+;a-;:-+:a+;a-;:-+;:-+:a+;a-;:-+:a+;a-;:-+:a+;a-;:.;a-;:-+:a+;a-;:-+:a+;a-;:-+:a+;:a+;a-;:-+:a+;a-;:-+:a+;a-;:-+:a",
".:+--a;++-:;;+a::;-aa:+--a;++-:;+-:;;+a::;-aa:+--a;++-:;;+a::;-a.a;++-:;;+a::;-aa:+--a;++-:;;+a:;+a::;-aa:+--a;++-:;;+a::;-aa:+-",
".a-+a-+;-+;:+;:a;:a-:a-+a-+;-+;:-+;:+;:a;:a-:a-+a-+;-+;:+;:a;:a-.-+;-+;:+;:a;:a-:a-+a-+;-+;:+;:a+;:a;:a-:a-+a-+;-+;:+;:a;:a-:a-+",
".+-a+-a:a:;+:;+-+-a:-a:;:;+-;+-aa:;+:;+-+-a:-a:;:;+-;+-a-a:;a:;+.;+-;+-a-a:;a:;+;+-a+-a:a:;+:;+--a:;a:;+;+-a+-a:a:;+:;+-+-a:-a:;",
".;a--+:a:a+;;:-+-+:aa-;:;:-++;a-:a+;;:-+-+:aa-;:;:-++;a-a-;::a+;.:-++;a-a-;::a+;+;a--+:a:a+;;:-+a-;::a+;+;a--+:a:a+;;:-+-+:aa-;:",
".a;+a:+-;+a:+-:;a:+-:;-a+-:;-a;+;+a:+-:;a:+-:;-a+-:;-a;+:;-a;+a:.-:;-a;+:;-a;+a:-a;+a:+-;+a:+-:;:;-a;+a:-a;+a:+-;+a:+-:;a:+-:;-a",
".-+;:a-++;:a-+;::a-+;:a--+;:a-+;+;:a-+;::a-+;:a--+;:a-+;;:a-+;:a.+;:a-+;;:a-+;:aa-+;:a-++;:a-+;:;:a-+;:aa-+;:a-++;:a-+;::a-+;:a-",
".;+-a:;++-a:;+-a;+-a:;+--a:;+-a:-a:;+-a::;+-a:;+a:;+-a:;;+-a:;+-.:;+-a:;;+-a:;+-:;+-a:;++-a:;+-a+-a:;+-aa:;+-a:;-a:;+-a::;+-a:;+",
".:-+:a+;-+:a+;a-+;a-;:-+a-;:-+:aa-;:-+:a;:-+:a+;:a+;a-;:+;a-;:-+.a+;a-;:+;a-;:-+;:-+:a+;-+:a+;a--+:a+;a-:a+;a-;:a-;:-+:a;:-+:a+;",
"................................................................................................................................",
"-+;:+;:a:a-+a-+;a-+;-+;:;:a-:a-+.:a-:a-+-+;:+;:a+;:a;:a-a-+;-+;:+;:a;:a-a-+;-+;:-+;:+;:a:a-+a-+;.a-+a-+;+;:a;:a-;:a-:a-+-+;:+;:a",
"a:;+:;+-;+-a+-a::;+-;+-a+-a:-a:;.-a:-a:;a:;+:;+--a:;a:;+:;+-;+-a-a:;a:;+:;+-;+-aa:;+:;+-;+-a+-a:.+-a+-a:-a:;a:;++-a:-a:;a:;+:;+-",
":a+;;:-++;a--+:a;:-++;a--+:aa-;:.+:aa-;::a+;;:-+a-;::a+;;:-++;a-a-;::a+;;:-++;a-:a+;;:-++;a--+:a.;a--+:aa-;::a+;-+:aa-;::a+;;:-+",
";+a:+-:;-a;+a:+-+-:;-a;+a:+-:;-a.:+-:;-a;+a:+-:;:;-a;+a:+-:;-a;+:;-a;+a:+-:;-a;+;+a:+-:;-a;+a:+-.a;+a:+-:;-a;+a:a:+-:;-a;+a:+-:;",
"+;:a-+;:a-+;:a-+-+;:a-+;:a-+;:a-.a-+;:a-+;:a-+;:;:a-+;:a-+;:a-+;;:a-+;:a-+;:a-+;+;:a-+;:a-+;:a-+.-+;:a-+;:a-+;:a:a-+;:a-+;:a-+;:",
"-a:;+-a:;+-a:;+-+-a:;+-a:;+-a:;+.+-a:;+-a:;+-a:;:;+-a:;+-a:;+-a:+-a:;+-a:;+-a:;+;+-a:;+-a:;+-a:;.;+-a:;+-a:;+-a:a:;+-a:;+-a:;+-a",
"a-;:-+:a+;a-;:-+-+:a+;a-;:-+:a+;.;a-;:-+:a+;a-;:;:-+:a+;a-;:-+:a-+:a+;a-;:-+:a+;+;a-;:-+:a+;a-;:.:-+:a+;a-;:-+:a:a+;a-;:-+:a+;a-",
":;-aa:+--a;++-:;a:+--a;++-:;;+a:.a;++-:;;+a::;-a+-:;;+a::;-aa:+-a:+--a;++-:;;+a:-a;++-:;;+a::;-a.-:;;+a::;-aa:+-;+a::;-aa:+--a;+",
";:a-:a-+a-+;-+;::a-+a-+;-+;:+;:a.-+;-+;:+;:a;:a--+;:+;:a;:a-:a-+:a-+a-+;-+;:+;:aa-+;-+;:+;:a;:a-.+;:+;:a;:a-:a-++;:a;:a-:a-+a-+;",
"+-a:-a:;:;+-;+-a;+-a+-a:a:;+:;+-.;+-;+-a-a:;a:;+a:;+:;+-+-a:-a:;;+-a+-a:a:;+:;+-:;+-;+-a-a:;a:;+.:;+:;+-+-a:-a:;-a:;a:;+;+-a+-a:",
"-+:aa-;:;:-++;a-+;a--+:a:a+;;:-+.:-++;a-a-;::a+;:a+;;:-+-+:aa-;:+;a--+:a:a+;;:-+;:-++;a-a-;::a+;.a+;;:-+-+:aa-;:a-;::a+;+;a--+:a",
"a:+-:;-a+-:;-a;+-a;+a:+-;+a:+-:;.-:;-a;+:;-a;+a:;+a:+-:;a:+-:;-a-a;+a:+-;+a:+-:;+-:;-a;+:;-a;+a:.+a:+-:;a:+-:;-a:;-a;+a:-a;+a:+-",
":a-+;:a--+;:a-+;a-+;:a-++;:a-+;:.+;:a-+;;:a-+;:a+;:a-+;::a-+;:a-a-+;:a-++;:a-+;:-+;:a-+;;:a-+;:a.;:a-+;::a-+;:a-;:a-+;:aa-+;:a-+",
";+-a:;+--a:;+-a::;+-a:;++-a:;+-a.:;+-a:;;+-a:;+--a:;+-a::;+-a:;+:;+-a:;++-a:;+-aa:;+-a:;;+-a:;+-.a:;+-a::;+-a:;++-a:;+-aa:;+-a:;",
"+;a-;:-+a-;:-+:a;:-+:a+;-+:a+;a-.a+;a-;:+;a-;:-+a-;:-+:a;:-+:a+;;:-+:a+;-+:a+;a-:a+;a-;:+;a-;:-+.-;:-+:a;:-+:a+;-+:a+;a-:a+;a-;:",
"-a;++-:;:;-aa:+-+-:;;+a:a:+--a;+.+a::;-a-a;++-:;:;-aa:+-+-:;;+a:+-:;;+a:a:+--a;+;+a::;-a-a;++-:;.;-aa:+-+-:;;+a:a:+--a;+;+a::;-a",
"a-+;-+;:;:a-:a-+-+;:+;:a:a-+a-+;.;:a;:a-a-+;-+;:;:a-:a-+-+;:+;:a-+;:+;:a:a-+a-+;+;:a;:a-a-+;-+;:.:a-:a-+-+;:+;:a:a-+a-+;+;:a;:a-",
":;+-;+-a+-a:-a:;a:;+:;+-;+-a+-a:.a:;a:;+:;+-;+-a+-a:-a:;a:;+:;+-a:;+:;+-;+-a+-a:-a:;a:;+:;+-;+-a.-a:-a:;a:;+:;+-;+-a+-a:-a:;a:;+",
";:-++;a--+:aa-;::a+;;:-++;a--+:a.-;::a+;;:-++;a--+:aa-;::a+;;:-+:a+;;:-++;a--+:aa-;::a+;;:-++;a-.+:aa-;::a+;;:-++;a--+:aa-;::a+;",
"+-:;-a;+a:+-:;-a;+a:+-:;-a;+a:+-.;-a;+a:+-:;-a;+a:+-:;-a;+a:+-:;;+a:+-:;-a;+a:+-:;-a;+a:+-:;-a;+.:+-:;-a;+a:+-:;-a;+a:+-:;-a;+a:",
"-+;:a-+;:a-+;:a-+;:a-+;:a-+;:a-+.:a-+;:a-+;:a-+;:a-+;:a-+;:a-+;:+;:a-+;:a-+;:a-+;:a-+;:a-+;:a-+;.a-+;:a-+;:a-+;:a-+;:a-+;:a-+;:a",
"a:;+-a:;+-a:;+-a:;+-a:;+-a:;+-a:.+-a:;+-a:;+-a:;+-a:;+-a:;+-a:;+:;+-a:;+-a:;+-a:;+-a:;+-a:;+-a:;.-a:;+-a:;+-a:;+-a:;+-a:;+-a:;+-",
":a+;a-;:-+:a+;a-;:-+:a+;a-;:-+:a.;a-;:-+:a+;a-;:-+:a+;a-;:-+:a+;;:-+:a+;a-;:-+:a+;a-;:-+:a+;a-;:.+:a+;a-;:-+:a+;a-;:-+:a+;a-;:-+",
";+a::;-aa:+--a;++-:;;+a::;-aa:+-.a;++-:;;+a::;-aa:+--a;++-:;;+a:+-:;;+a::;-aa:+--a;++-:;;+a::;-a.:+--a;++-:;;+a::;-aa:+--a;++-:;",
"+;:a;:a-:a-+a-+;-+;:+;:a;:a-:a-+.-+;-+;:+;:a;:a-:a-+a-+;-+;:+;:a-+;:+;:a;:a-:a-+a-+;-+;:+;:a;:a-.a-+a-+;-+;:+;:a;:a-:a-+a-+;-+;:",
"-a:;a:;+;+-a+-a:a:;+:;+-+-a:-a:;.;+-;+-a-a:;a:;+;+-a+-a:a:;+:;+-a:;+:;+-+-a:-a:;:;+-;+-a-a:;a:;+.+-a+-a:a:;+:;+-+-a:-a:;:;+-;+-a",
"a-;::a+;+;a--+:a:a+;;:-+-+:aa-;:.:-++;a-a-;::a+;+;a--+:a:a+;;:-+:a+;;:-+-+:aa-;:;:-++;a-a-;::a+;.;a--+:a:a+;;:-+-+:aa-;:;:-++;a-",
":;-a;+a:-a;+a:+-;+a:+-:;a:+-:;-a.-:;-a;+:;-a;+a:-a;+a:+-;+a:+-:;;+a:+-:;a:+-:;-a+-:;-a;+:;-a;+a:.a;+a:+-;+a:+-:;a:+-:;-a+-:;-a;+",
";:a-+;:aa-+;:a-++;:a-+;::a-+;:a-.+;:a-+;;:a-+;:aa-+;:a-++;:a-+;:+;:a-+;::a-+;:a--+;:a-+;;:a-+;:a.-+;:a-++;:a-+;::a-+;:a--+;:a-+;",
"+-a:;+-aa:;+-a:;-a:;+-a::;+-a:;+.:;+-a:;;+-a:;+-:;+-a:;++-a:;+-a-a:;+-a::;+-a:;+a:;+-a:;;+-a:;+-.;+-a:;++-a:;+-a;+-a:;+--a:;+-a:",
"-+:a+;a-:a+;a-;:a-;:-+:a;:-+:a+;.a+;a-;:+;a-;:-+;:-+:a+;-+:a+;a-a-;:-+:a;:-+:a+;:a+;a-;:+;a-;:-+.:-+:a+;-+:a+;a-+;a-;:-+a-;:-+:a",
"a:+--a;+;+a::;-a:;-aa:+-+-:;;+a:.+a::;-a-a;++-:;+-:;;+a:a:+--a;+:;-aa:+-+-:;;+a:;+a::;-a-a;++-:;.-:;;+a:a:+--a;+-a;++-:;:;-aa:+-",
":a-+a-+;+;:a;:a-;:a-:a-+-+;:+;:a.;:a;:a-a-+;-+;:-+;:+;:a:a-+a-+;;:a-:a-+-+;:+;:a+;:a;:a-a-+;-+;:.+;:+;:a:a-+a-+;a-+;-+;:;:a-:a-+",
";+-a+-a:-a:;a:;++-a:-a:;a:;+:;+-.a:;a:;+:;+-;+-aa:;+:;+-;+-a+-a:+-a:-a:;a:;+:;+--a:;a:;+:;+-;+-a.:;+:;+-;+-a+-a::;+-;+-a+-a:-a:;",
"+;a--+:aa-;::a+;-+:aa-;::a+;;:-+.-;::a+;;:-++;a-:a+;;:-++;a--+:a-+:aa-;::a+;;:-+a-;::a+;;:-++;a-.a+;;:-++;a--+:a;:-++;a--+:aa-;:",
"-a;+a:+-:;-a;+a:a:+-:;-a;+a:+-:;.;-a;+a:+-:;-a;+;+a:+-:;-a;+a:+-a:+-:;-a;+a:+-:;:;-a;+a:+-:;-a;+.+a:+-:;-a;+a:+-+-:;-a;+a:+-:;-a",
"a-+;:a-+;:a-+;:a:a-+;:a-+;:a-+;:.:a-+;:a-+;:a-+;+;:a-+;:a-+;:a-+:a-+;:a-+;:a-+;:;:a-+;:a-+;:a-+;.;:a-+;:a-+;:a-+-+;:a-+;:a-+;:a-",
":;+-a:;+-a:;+-a:a:;+-a:;+-a:;+-a.-a:;+-a:;+-a:;+;+-a:;+-a:;+-a:;;+-a:;+-a:;+-a:;:;+-a:;+-a:;+-a:.a:;+-a:;+-a:;+-+-a:;+-a:;+-a:;+",
";:-+:a+;a-;:-+:a:a+;a-;:-+:a+;a-.+:a+;a-;:-+:a+;+;a-;:-+:a+;a-;:+;a-;:-+:a+;a-;:;:-+:a+;a-;:-+:a.-;:-+:a+;a-;:-+-+:a+;a-;:-+:a+;",
"+-:;;+a::;-aa:+-;+a::;-aa:+--a;+.:+--a;++-:;;+a:-a;++-:;;+a::;-a-a;++-:;;+a::;-a+-:;;+a::;-aa:+-.;-aa:+--a;++-:;a:+--a;++-:;;+a:",
"-+;:+;:a;:a-:a-++;:a;:a-:a-+a-+;.a-+a-+;-+;:+;:aa-+;-+;:+;:a;:a-a-+;-+;:+;:a;:a--+;:+;:a;:a-:a-+.:a-:a-+a-+;-+;::a-+a-+;-+;:+;:a",
"................................................................................................................................",
".a+;;:-+-+:aa-;:a-;::a+;+;a--+:a+;a--+:a:a+;;:-+;:-++;a-a-;::a+;.:-++;a-a-;::a+;:a+;;:-+-+:aa-;:-+:aa-;:;:-++;a-+;a--+:a:a+;;:-+",
".+a:+-:;a:+-:;-a:;-a;+a:-a;+a:+--a;+a:+-;+a:+-:;+-:;-a;+:;-a;+a:.-:;-a;+:;-a;+a:;+a:+-:;a:+-:;-aa:+-:;-a+-:;-a;+-a;+a:+-;+a:+-:;",
".;:a-+;::a-+;:a-;:a-+;:aa-+;:a-+a-+;:a-++;:a-+;:-+;:a-+;;:a-+;:a.+;:a-+;;:a-+;:a+;:a-+;::a-+;:a-:a-+;:a--+;:a-+;a-+;:a-++;:a-+;:",
".a:;+-a::;+-a:;++-a:;+-aa:;+-a:;:;+-a:;++-a:;+-aa:;+-a:;;+-a:;+-.:;+-a:;;+-a:;+--a:;+-a::;+-a:;+;+-a:;+--a:;+-a::;+-a:;++-a:;+-a",
".-;:-+:a;:-+:a+;-+:a+;a-:a+;a-;:;:-+:a+;-+:a+;a-:a+;a-;:+;a-;:-+.a+;a-;:+;a-;:-+a-;:-+:a;:-+:a+;+;a-;:-+a-;:-+:a;:-+:a+;-+:a+;a-",
".;-aa:+-+-:;;+a:a:+--a;+;+a::;-a+-:;;+a:a:+--a;+;+a::;-a-a;++-:;.+a::;-a-a;++-:;:;-aa:+-+-:;;+a:-a;++-:;:;-aa:+-+-:;;+a:a:+--a;+",
".:a-:a-+-+;:+;:a:a-+a-+;+;:a;:a--+;:+;:a:a-+a-+;+;:a;:a-a-+;-+;:.;:a;:a-a-+;-+;:;:a-:a-+-+;:+;:aa-+;-+;:;:a-:a-+-+;:+;:a:a-+a-+;",
".-a:-a:;a:;+:;+-;+-a+-a:-a:;a:;+a:;+:;+-;+-a+-a:-a:;a:;+:;+-;+-a.a:;a:;+:;+-;+-a+-a:-a:;a:;+:;+-:;+-;+-a+-a:-a:;a:;+:;+-;+-a+-a:",
".+:aa-;::a+;;:-++;a--+:aa-;::a+;:a+;;:-++;a--+:aa-;::a+;;:-++;a-.-;::a+;;:-++;a--+:aa-;::a+;;:-+;:-++;a--+:aa-;::a+;;:-++;a--+:a",
".:+-:;-a;+a:+-:;-a;+a:+-:;-a;+a:;+a:+-:;-a;+a:+-:;-a;+a:+-:;-a;+.;-a;+a:+-:;-a;+a:+-:;-a;+a:+-:;+-:;-a;+a:+-:;-a;+a:+-:;-a;+a:+-",
".a-+;:a-+;:a-+;:a-+;:a-+;:a-+;:a+;:a-+;:a-+;:a-+;:a-+;:a-+;:a-+;.:a-+;:a-+;:a-+;:a-+;:a-+;:a-+;:-+;:a-+;:a-+;:a-+;:a-+;:a-+;:a-+",
".+-a:;+-a:;+-a:;+-a:;+-a:;+-a:;+a:;+-a:;+-a:;+-a:;+-a:;+-a:;+-a:.-a:;+-a:;+-a:;+-a:;+-a:;+-a:;+-:;+-a:;+-a:;+-a:;+-a:;+-a:;+-a:;",
".;a-;:-+:a+;a-;:-+:a+;a-;:-+:a+;:a+;a-;:-+:a+;a-;:-+:a+;a-;:-+:a.+:a+;a-;:-+:a+;a-;:-+:a+;a-;:-+;:-+:a+;a-;:-+:a+;a-;:-+:a+;a-;:",
".a;++-:;;+a::;-aa:+--a;++-:;;+a:;+a::;-aa:+--a;++-:;;+a::;-aa:+-.:+--a;++-:;;+a::;-aa:+--a;++-:;+-:;;+a::;-aa:+--a;++-:;;+a::;-a",
".-+;-+;:+;:a;:a-:a-+a-+;-+;:+;:a+;:a;:a-:a-+a-+;-+;:+;:a;:a-:a-+.a-+a-+;-+;:+;:a;:a-:a-+a-+;-+;:-+;:+;:a;:a-:a-+a-+;-+;:+;:a;:a-",
".;+-;+-a-a:;a:;+;+-a+-a:a:;+:;+--a:;a:;+;+-a+-a:a:;+:;+-+-a:-a:;.+-a+-a:a:;+:;+-+-a:-a:;:;+-;+-aa:;+:;+-+-a:-a:;:;+-;+-a-a:;a:;+",
".:-++;a-a-;::a+;+;a--+:a:a+;;:-+a-;::a+;+;a--+:a:a+;;:-+-+:aa-;:.;a--+:a:a+;;:-+-+:aa-;:;:-++;a-:a+;;:-+-+:aa-;:;:-++;a-a-;::a+;",
".-:;-a;+:;-a;+a:-a;+a:+-;+a:+-:;:;-a;+a:-a;+a:+-;+a:+-:;a:+-:;-a.a;+a:+-;+a:+-:;a:+-:;-a+-:;-a;+;+a:+-:;a:+-:;-a+-:;-a;+:;-a;+a:",
".+;:a-+;;:a-+;:aa-+;:a-++;:a-+;:;:a-+;:aa-+;:a-++;:a-+;::a-+;:a-.-+;:a-++;:a-+;::a-+;:a--+;:a-+;+;:a-+;::a-+;:a--+;:a-+;;:a-+;:a",
".:;+-a:;;+-a:;+-:;+-a:;++-a:;+-a+-a:;+-aa:;+-a:;-a:;+-a::;+-a:;+.;+-a:;++-a:;+-a;+-a:;+--a:;+-a:-a:;+-a::;+-a:;+a:;+-a:;;+-a:;+-",
".a+;a-;:+;a-;:-+;:-+:a+;-+:a+;a--+:a+;a-:a+;a-;:a-;:-+:a;:-+:a+;.:-+:a+;-+:a+;a-+;a-;:-+a-;:-+:aa-;:-+:a;:-+:a+;:a+;a-;:+;a-;:-+",
".+a::;-a-a;++-:;+-:;;+a:a:+--a;+a:+--a;+;+a::;-a:;-aa:+-+-:;;+a:.-:;;+a:a:+--a;+-a;++-:;:;-aa:+-:;-aa:+-+-:;;+a:;+a::;-a-a;++-:;",
".;:a;:a-a-+;-+;:-+;:+;:a:a-+a-+;:a-+a-+;+;:a;:a-;:a-:a-+-+;:+;:a.+;:+;:a:a-+a-+;a-+;-+;:;:a-:a-+;:a-:a-+-+;:+;:a+;:a;:a-a-+;-+;:",
".a:;a:;+:;+-;+-aa:;+:;+-;+-a+-a:;+-a+-a:-a:;a:;++-a:-a:;a:;+:;+-.:;+:;+-;+-a+-a::;+-;+-a+-a:-a:;+-a:-a:;a:;+:;+--a:;a:;+:;+-;+-a",
".-;::a+;;:-++;a-:a+;;:-++;a--+:a+;a--+:aa-;::a+;-+:aa-;::a+;;:-+.a+;;:-++;a--+:a;:-++;a--+:aa-;:-+:aa-;::a+;;:-+a-;::a+;;:-++;a-",
".;-a;+a:+-:;-a;+;+a:+-:;-a;+a:+--a;+a:+-:;-a;+a:a:+-:;-a;+a:+-:;.+a:+-:;-a;+a:+-+-:;-a;+a:+-:;-aa:+-:;-a;+a:+-:;:;-a;+a:+-:;-a;+",
".:a-+;:a-+;:a-+;+;:a-+;:a-+;:a-+a-+;:a-+;:a-+;:a:a-+;:a-+;:a-+;:.;:a-+;:a-+;:a-+-+;:a-+;:a-+;:a-:a-+;:a-+;:a-+;:;:a-+;:a-+;:a-+;",
".-a:;+-a:;+-a:;+;+-a:;+-a:;+-a:;:;+-a:;+-a:;+-a:a:;+-a:;+-a:;+-a.a:;+-a:;+-a:;+-+-a:;+-a:;+-a:;+;+-a:;+-a:;+-a:;:;+-a:;+-a:;+-a:",
".+:a+;a-;:-+:a+;+;a-;:-+:a+;a-;:;:-+:a+;a-;:-+:a:a+;a-;:-+:a+;a-.-;:-+:a+;a-;:-+-+:a+;a-;:-+:a+;+;a-;:-+:a+;a-;:;:-+:a+;a-;:-+:a",
".:+--a;++-:;;+a:-a;++-:;;+a::;-a+-:;;+a::;-aa:+-;+a::;-aa:+--a;+.;-aa:+--a;++-:;a:+--a;++-:;;+a:-a;++-:;;+a::;-a+-:;;+a::;-aa:+-",
".a-+a-+;-+;:+;:aa-+;-+;:+;:a;:a--+;:+;:a;:a-:a-++;:a;:a-:a-+a-+;.:a-:a-+a-+;-+;::a-+a-+;-+;:+;:aa-+;-+;:+;:a;:a--+;:+;:a;:a-:a-+",
".+-a+-a:a:;+:;+-:;+-;+-a-a:;a:;+a:;+:;+-+-a:-a:;-a:;a:;+;+-a+-a:.-a:-a:;:;+-;+-a;+-a+-a:a:;+:;+-:;+-;+-a-a:;a:;+a:;+:;+-+-a:-a:;",
".;a--+:a:a+;;:-+;:-++;a-a-;::a+;:a+;;:-+-+:aa-;:a-;::a+;+;a--+:a.+:aa-;:;:-++;a-+;a--+:a:a+;;:-+;:-++;a-a-;::a+;:a+;;:-+-+:aa-;:",
".a;+a:+-;+a:+-:;+-:;-a;+:;-a;+a:;+a:+-:;a:+-:;-a:;-a;+a:-a;+a:+-.:+-:;-a+-:;-a;+-a;+a:+-;+a:+-:;+-:;-a;+:;-a;+a:;+a:+-:;a:+-:;-a",
".-+;:a-++;:a-+;:-+;:a-+;;:a-+;:a+;:a-+;::a-+;:a-;:a-+;:aa-+;:a-+.a-+;:a--+;:a-+;a-+;:a-++;:a-+;:-+;:a-+;;:a-+;:a+;:a-+;::a-+;:a-",
".;+-a:;++-a:;+-aa:;+-a:;;+-a:;+--a:;+-a::;+-a:;++-a:;+-aa:;+-a:;.+-a:;+--a:;+-a::;+-a:;++-a:;+-aa:;+-a:;;+-a:;+--a:;+-a::;+-a:;+",
".:-+:a+;-+:a+;a-:a+;a-;:+;a-;:-+a-;:-+:a;:-+:a+;-+:a+;a-:a+;a-;:.;a-;:-+a-;:-+:a;:-+:a+;-+:a+;a-:a+;a-;:+;a-;:-+a-;:-+:a;:-+:a+;",
".-:;;+a:a:+--a;+;+a::;-a-a;++-:;:;-aa:+-+-:;;+a:a:+--a;+;+a::;-a.a;++-:;:;-aa:+-+-:;;+a:a:+--a;+;+a::;-a-a;++-:;:;-aa:+-+-:;;+a:",
".+;:+;:a:a-+a-+;+;:a;:a-a-+;-+;:;:a-:a-+-+;:+;:a:a-+a-+;+;:a;:a-.-+;-+;:;:a-:a-+-+;:+;:a:a-+a-+;+;:a;:a-a-+;-+;:;:a-:a-+-+;:+;:a",
".:;+:;+-;+-a+-a:-a:;a:;+:;+-;+-a+-a:-a:;a:;+:;+-;+-a+-a:-a:;a:;+.;+-;+-a+-a:-a:;a:;+:;+-;+-a+-a:-a:;a:;+:;+-;+-a+-a:-a:;a:;+:;+-",
".a+;;:-++;a--+:aa-;::a+;;:-++;a--+:aa-;::a+;;:-++;a--+:aa-;::a+;.:-++;a--+:aa-;::a+;;:-++;a--+:aa-;::a+;;:-++;a--+:aa-;::a+;;:-+",
"................................................................................................................................",
".;:a-+;:a-+;:a-+;:a-+;:a-+;:a-+;:a-+;:a-+;:a-+;:a-+;:a-+;:a-+;:a.+;:a-+;:a-+;:a-+;:a-+;:a-+;:a-+;:a-+;:a-+;:a-+;:a-+;:a-+;:a-+;:"
};